frontend/public/svg/gender symbols/hetro.svg

<svg width="131" height="169" viewBox="0 0 131 169" fill="none" xmlns="http://www.w3.org/2000/svg">
<g clip-path="url(#clip0)">
<path d="M90.5977 30.4429C90.8032 30.246 91.3854 29.7207 91.9281 29.1654C98.6641 22.266 105.395 15.3615 112.372 8.2081C111.643 8.01764 110.901 7.88007 110.152 7.79691C107.233 7.69911 104.311 7.72301 101.393 7.58321C98.8473 7.46113 97.4401 6.20996 97.4886 4.33545C97.5365 2.48852 98.9903 1.30852 101.566 1.25471C105.044 1.18185 108.531 1.28434 112.012 1.2233C115.266 1.16598 118.518 1.04464 121.769 0.859557C125.438 0.648873 126.99 1.62695 127.634 5.29785C128.542 10.4882 129.303 15.703 129.918 20.9423C130.009 21.5307 129.981 22.1311 129.836 22.7084C129.69 23.2858 129.431 23.8284 129.072 24.3037C128.714 24.7792 128.264 25.1779 127.749 25.4767C127.235 25.7755 126.665 25.9682 126.074 26.0433C123.8 26.2514 121.864 24.337 121.589 21.5396C121.524 20.878 121.69 20.1972 121.673 19.527C121.644 16.6681 121.44 13.8136 121.062 10.9796C111.879 18.794 103.711 27.5044 95.0556 35.9522C95.5688 36.7778 96.0165 37.5195 96.4851 38.2493C105.6 52.4335 106.396 67.3019 99.6355 82.5217C95.435 91.973 87.5254 97.0333 77.5872 98.9354C75.1797 99.3948 73.9681 100.4 73.0204 102.596C68.6918 112.627 60.6288 117.903 50.1858 119.976C48.3244 120.346 46.4511 120.656 44.2025 121.063C44.4217 126.637 44.6398 132.179 44.8774 138.215C47.3111 138.041 49.4959 137.898 51.6789 137.726C53.4503 137.474 55.2357 137.33 57.0248 137.297C59.1907 137.395 60.5526 138.741 60.7738 140.507C60.8879 141.469 60.6421 142.438 60.0838 143.229C59.5254 144.02 58.6941 144.576 57.75 144.79C56.4401 145.09 55.0987 145.231 53.7549 145.209C51.0784 145.269 48.3992 145.227 45.5507 145.227C45.5507 146.628 45.5128 147.712 45.5581 148.792C45.7366 153.054 46.0666 157.315 46.0719 161.577C46.0812 163.245 45.671 164.889 44.8787 166.357C44.5921 166.881 44.1685 167.317 43.6532 167.619C43.1378 167.921 42.5503 168.078 41.9531 168.071C41.3558 168.065 40.7715 167.897 40.2625 167.584C39.7536 167.272 39.3392 166.826 39.0636 166.297C38.3469 165.036 37.9196 163.632 37.8132 162.185C37.4738 157.935 37.3387 153.667 37.1516 149.406C37.0991 148.197 37.1436 146.985 37.1436 145.288C34.2676 145.288 31.7262 145.327 29.1875 145.272C27.8389 145.269 26.4933 145.147 25.1661 144.907C23.1315 144.498 22.0774 143.157 22.1982 141.423C22.3196 139.668 23.412 138.761 25.7584 138.719C29.3295 138.653 32.9026 138.702 36.7928 138.702C36.9962 132.814 37.1864 127.262 37.3892 121.39C35.8934 121.221 34.37 121.021 32.8342 120.881C17.365 119.468 6.5589 110.445 2.34653 95.5697C-1.11368 83.3474 0.162301 71.7709 7.00657 61.0071C8.47913 58.7509 10.3078 56.7484 12.4214 55.0776C17.1752 51.2708 22.4161 48.2196 28.4478 46.8827C29.2033 46.7519 29.9127 46.4297 30.5085 45.9472C31.1043 45.4647 31.5667 44.8377 31.8516 44.1259C37.1574 33.022 46.7466 28.0916 58.1971 25.4203C65.7004 23.6718 72.9318 24.3165 80.1311 26.3032C83.5323 27.2451 86.7483 28.8939 90.5977 30.4429ZM27.8277 54.6203C21.1429 56.0373 14.5478 60.7582 11.5214 66.1264C4.60368 78.3999 6.13116 90.4837 12.6079 102.303C15.3143 107.184 19.8117 110.822 25.1504 112.449C35.2758 115.771 45.3211 114.964 55.0795 111.019C59.8104 109.107 63.1014 105.492 65.1931 100.528C63.272 100.331 61.612 100.154 59.9495 100.003C43.6401 98.4878 32.7346 88.9006 28.8773 72.9241C27.4418 66.9665 27.2639 60.9868 27.8277 54.6203ZM76.5456 91.7203C77.3443 91.6671 78.1378 91.5542 78.9195 91.3823C85.8406 89.2603 90.4632 84.6948 92.9704 77.9615C95.9042 70.3584 96.3486 62.0206 94.2398 54.1489C92.2806 46.8451 88.7882 40.2209 81.8632 36.4188C74.2293 32.228 65.7173 31.3937 57.3418 32.6775C51.195 33.7145 45.5667 36.7638 41.341 41.3464C40.3909 42.4755 39.5099 43.6612 38.7031 44.8967C41.7452 45.2432 44.3096 45.4625 46.8509 45.8379C53.9486 46.8881 60.6953 48.7258 65.7399 54.3703C71.1157 60.3007 74.7583 67.5946 76.2699 75.4549C77.3069 80.764 77.0916 86.1145 76.5456 91.7203ZM67.3155 93.1813C67.5183 92.9247 67.6765 92.6365 67.7854 92.328C69.7623 80.6721 67.7021 70.0434 59.647 61.0026C57.5296 58.626 54.9797 56.6869 51.8673 55.9256C47.4298 54.84 42.9228 54.0289 38.4249 53.2144C37.3886 53.0267 36.2683 53.3011 35.1958 53.3621C34.9162 54.4123 34.6707 55.1578 34.5244 55.9218C33.1034 63.4697 34.6681 70.6479 37.5061 77.5808C41.9095 88.3257 52.6189 94.8293 67.3155 93.1813Z" fill="black"/>
</g>
<defs>
<clipPath id="clip0">
<rect width="129.955" height="168.022" fill="white" transform="translate(0.112305 0.625977)"/>
</clipPath>
</defs>
</svg>

<svg xmlns="http://www.w3.org/2000/svg" width="131" height="169" fill="none" viewBox="0 0 131 169"><g clip-path="url(#a)"><path fill="#000" d="M90.598 30.443c.205-.197.787-.722 1.33-1.278 6.736-6.899 13.467-13.803 20.444-20.957a15.6 15.6 0 0 0-2.22-.411c-2.919-.098-5.841-.074-8.759-.214-2.546-.122-3.953-1.373-3.904-3.248.047-1.846 1.501-3.026 4.077-3.08 3.478-.073 6.965.03 10.446-.032q4.88-.085 9.757-.363c3.669-.211 5.221.767 5.865 4.438a281 281 0 0 1 2.284 15.644 4.454 4.454 0 0 1-3.844 5.101c-2.274.208-4.21-1.706-4.485-4.503-.065-.662.101-1.343.084-2.013a70 70 0 0 0-.611-8.547c-9.183 7.814-17.351 16.524-26.006 24.972.513.826.96 1.568 1.43 2.297 9.114 14.185 9.91 29.053 3.15 44.273-4.201 9.451-12.11 14.511-22.049 16.413-2.407.46-3.619 1.465-4.567 3.661-4.328 10.031-12.391 15.307-22.834 17.38-1.862.37-3.735.68-5.983 1.087l.674 17.152c2.434-.174 4.619-.317 6.802-.489a44 44 0 0 1 5.346-.429c2.166.098 3.528 1.444 3.749 3.21a3.92 3.92 0 0 1-3.024 4.283c-1.31.3-2.651.441-3.995.419-2.677.06-5.356.018-8.204.018 0 1.401-.038 2.485.007 3.565.179 4.262.509 8.523.514 12.785a9.95 9.95 0 0 1-1.193 4.78 3.296 3.296 0 0 1-5.815-.06 9.8 9.8 0 0 1-1.25-4.112c-.34-4.25-.475-8.518-.662-12.779-.053-1.209-.008-2.421-.008-4.118-2.876 0-5.418.039-7.956-.016a23 23 0 0 1-4.022-.365c-2.035-.409-3.089-1.75-2.968-3.484.122-1.755 1.214-2.662 3.56-2.704 3.572-.066 7.145-.017 11.035-.017l.596-17.312c-1.496-.169-3.019-.369-4.555-.509C17.365 119.468 6.56 110.445 2.347 95.57c-3.46-12.223-2.185-23.8 4.66-34.563a24.9 24.9 0 0 1 5.414-5.93c4.754-3.806 9.995-6.857 16.027-8.194a4.49 4.49 0 0 0 3.404-2.757c5.305-11.104 14.895-16.034 26.345-18.706 7.503-1.748 14.735-1.104 21.934.883 3.401.942 6.617 2.59 10.467 4.14M27.828 54.62c-6.685 1.417-13.28 6.138-16.307 11.506-6.917 12.274-5.39 24.358 1.087 36.177a21.5 21.5 0 0 0 12.542 10.146c10.126 3.322 20.171 2.515 29.93-1.43 4.73-1.912 8.021-5.527 10.113-10.491-1.921-.197-3.581-.374-5.243-.525-16.31-1.515-27.215-11.102-31.073-27.079-1.435-5.958-1.613-11.937-1.05-18.304m48.718 37.1a16 16 0 0 0 2.373-.338c6.922-2.122 11.544-6.687 14.051-13.42a38.5 38.5 0 0 0 1.27-23.813c-1.96-7.304-5.452-13.928-12.377-17.73-7.634-4.191-16.146-5.025-24.521-3.741a28.13 28.13 0 0 0-16.001 8.668 37 37 0 0 0-2.638 3.55c3.042.347 5.607.566 8.148.942 7.098 1.05 13.844 2.888 18.889 8.532a43.7 43.7 0 0 1 10.53 21.085c1.037 5.309.822 10.66.276 16.265m-9.23 1.461c.202-.256.36-.544.47-.853 1.976-11.656-.084-22.285-8.139-31.325-2.117-2.377-4.667-4.316-7.78-5.077-4.437-1.086-8.944-1.897-13.442-2.712-1.036-.187-2.157.087-3.23.148-.279 1.05-.524 1.796-.67 2.56-1.422 7.548.143 14.726 2.981 21.659 4.404 10.745 15.113 17.248 29.81 15.6"/></g><defs><clipPath id="a"><path fill="#fff" d="M.112.626h129.955v168.022H.112z"/></clipPath></defs></svg>
